neru-light-classic/22x22/actions/reconcile-finish.svg

<svg xmlns="http://www.w3.org/2000/svg" width="22" height="22" version="1.1">
 <defs>
  <style id="current-color-scheme" type="text/css">
   .ColorScheme-Text { color:#1e333d; } .ColorScheme-Highlight { color:#3fb7ff; }
  </style>
 </defs>
 <path style="fill:currentColor" class="ColorScheme-Text" d="M 5 3 L 5 4 L 10 4 L 10 17 L 7 17 L 7 19 L 14.455078 19 L 13.375 18.136719 A 1.0001 1.0001 0 0 1 13.064453 17 L 12 17 L 12 4 L 17 4 L 17 3 L 5 3 z M 5 4.0214844 L 2.0351562 11 L 2 11 C 2 11.022027 2.005387 11.042539 2.0058594 11.064453 L 1.9902344 11.103516 L 2.0117188 11.113281 C 2.072544 12.716488 3.381908 14 5 14 C 6.618092 14 7.9274559 12.716488 7.9882812 11.113281 L 8.0097656 11.103516 L 7.9941406 11.064453 C 7.994613 11.042539 8 11.022027 8 11 L 7.9648438 11 L 5 4.0214844 z M 17 4.0214844 L 14.035156 11 L 14.009766 11 L 14 11 C 14 11.022027 14.005387 11.042539 14.005859 11.064453 L 13.990234 11.103516 L 14.011719 11.113281 C 14.065065 12.519373 15.079818 13.677373 16.419922 13.941406 C 16.608823 13.979257 16.803728 13.99961 17.003906 14 C 17.005895 14.000004 17.007776 14 17.009766 14 C 17.23654 14 17.453957 13.96769 17.666016 13.919922 C 18.967053 13.626855 19.945746 12.4918 19.998047 11.113281 L 20.019531 11.103516 L 20.003906 11.064453 C 20.004378 11.042573 20.009766 11.02203 20.009766 11 L 20 11 L 19.974609 11 L 17.009766 4.0214844 L 17.003906 4.0332031 L 17 4.0214844 z M 5 6.5800781 L 6.8789062 11 L 3.1210938 11 L 5 6.5800781 z M 17.003906 6.5917969 L 18.878906 11 L 15.130859 11 L 17.003906 6.5917969 z"/>
 <path style="fill:currentColor" class="ColorScheme-Text" d="M 19.324219,13.97461 16.943359,17.148438 15.25,15.792969 14,17.355469 17.306641,20 l 3.61914,-4.826172 z"/>
</svg>

<svg xmlns="http://www.w3.org/2000/svg" width="22" height="22"><defs><style id="current-color-scheme" type="text/css">.ColorScheme-Text{color:#1e333d}</style></defs><path class="ColorScheme-Text" d="M5 3v1h5v13H7v2h7.455l-1.08-.863a1 1 0 0 1-.31-1.137H12V4h5V3H5zm0 1.021L2.035 11H2c0 .022.005.043.006.064l-.016.04.022.01A2.994 2.994 0 0 0 5 14a2.994 2.994 0 0 0 2.988-2.887l.022-.01-.016-.039c0-.021.006-.042.006-.064h-.035L5 4.021zm12 0L14.035 11H14c0 .022.005.043.006.064l-.016.04.022.01A2.996 2.996 0 0 0 17.004 14h.006c.227 0 .444-.032.656-.08a2.993 2.993 0 0 0 2.332-2.807l.022-.01-.016-.039c0-.021.006-.042.006-.064h-.035L17.01 4.021l-.006.012L17 4.021zM5 6.581L6.879 11H3.12L5 6.58zm12.004.01L18.879 11H15.13l1.873-4.408z" fill="currentColor"/><path class="ColorScheme-Text" d="M19.324 13.975l-2.38 3.173-1.694-1.355L14 17.355 17.307 20l3.619-4.826z" fill="currentColor"/></svg>
